!!!!SEGMENT: pl-kk--kk-i-10--008-004_pekiel-bartlomiej--missa-sanctus.krn
!!!cenid: 16xx:1198
!!!COM: Pękiel, Bartłomiej
!!!COM-rismID: pe30105642
!!!CDT: <1633-~1670
!!!CNT: Polish
!!!OPR: Missa
!!!OTL: Sanctus
!!!OMV: 004
!!!PDT:
!!!AGN: Sacred; Mass
!!!SMS-siglum: PL-Kk
!!!SMS-shelfmark: Kk.I.10
!!!SMS-shelfwork: 008-004 M
!!!SMS-variant:
!!!SMS-altvar:
!!!NIFC-rismSourceID: 1001153818
!!!NIFC-islandoraID: pl-kk:2434
!!!URL-pdf-islandora: https://repozytorium.nifc.pl/islandora/object/pl-kk%3A2434/datastream/PDF/view
!!!URL-scan: https://polish.musicsources.pl/pl/lokalizacje/galeria/rekopisy/5737 @EN{Scan on Polish Music Sources Website} @PL{Skany w portalu Dziedzictwo Muzyki Polskiej w otwartym dostępie}
!!!ONB-nifc: UWAGA: części Mszy: 1. Kyrie, 2. Et in terra, 3. Patrem, 4. Sanctus, 5. Benedictus, 6. Agnus Dei. T1 (0015-0019), T2 (0065-0069), B (0114-0118).
!!!AIN: 2 empty 1 tenor
!!!key:
**kern	**text	**kern	**text	**kern	**text
*part3	*part3	*part2	*part2	*part1	*part1
*staff3	*staff3	*staff2	*staff2	*staff1	*staff1
*Iempty	*	*Itenor	*	*Iempty	*
*I"[Bas]	*	*I"2cto Tenore	*	*I"Primus	*
*I'B	*	*I'2	*	*I'Pr	*
*clefF4	*	*clefC4	*	*clefC4	*
*k[]	*	*k[]	*	*k[]	*
*G:	*	*G:	*	*G:	*
*M2/1	*	*M2/1	*	*M2/1	*
*	*	*met(c|)	*	*met(c|)	*
=1-	=1-	=1-	=1-	=1-	=1-
*	*	*2\right	*	*2\right	*
0GG	San-	2.B\	San-	2.d\	San-
.	.	4c\	.	4c\	.
.	.	1d	.	4B\	.
.	.	.	.	4A/	.
.	.	.	.	1B\	.
=2-	=2-	=2-	=2-	=2-	=2-
0D	-ctus	0d	-ctus	.	.
.	.	.	.	4A/	.
.	.	.	.	4G/	.
.	.	.	.	1A;<	-ctus
=3-	=3-	=3-	=3-	=3-	=3-
1r;<	.	1r;<	.	1r	.
=4||-	=4||-	=4||-	=4||-	=4||-	=4||-
*M2/1	*	*M2/1	*	*M2/1	*
*	*	*met(c|)	*	*	*
0AA	San-	2.e\	San-	2.A/	San-
.	.	4d\	.	4B\	.
.	.	4c\	.	2.c\	.
.	.	4B\	.	.	.
.	.	1c\	.	.	.
.	.	.	.	4d\	.
=5-	=5-	=5-	=5-	=5-	=5-
!LO:TX:t=P:problem=nadprogramowa pauza 1	!	!	!	!	!
0E	-ctus	.	.	1e	-ctus
.	.	4B\	.	.	.
.	.	4A\	.	.	.
!	!	!LO:N:vis=1.	!	!	!
.	.	1B;<	-ctus	1r;<	.
!	!	!LO:PB:g=original	!	!LO:LB:g=original	!
=6-	=6-	=6-	=6-	=6-	=6-
*M2/1	*	*M2/1	*	*M2/1	*
1C	San-	[0c	San-	1e	San-
4C/	.	.	.	2e\	-ctus
4D/	.	.	.	.	.
*	*	*	*	*	*ij
4E/	.	.	.	1e\	San-
4C/	.	.	.	.	.
=7-	=7-	=7-	=7-	=7-	=7-
*2\right	*	*	*	*	*
2G\	.	2c\]	.	.	.
1G	.	4B\	.	4d\	.
.	.	4A/	.	4c\	.
.	.	4B\	.	2d\	-ctus
*	*	*	*	*	*Xij
.	.	4c\	.	.	.
2F\	.	1d\	.	2r	.
!LO:PB:g=original	!	!	!	!	!
=8-	=8-	=8-	=8-	=8-	=8-
(1E	.	.	.	2r	.
!	!	!LO:TX:a:t=P:#above:problem	!	!	!
.	.	2c#X\	.	4G/	San-
.	.	.	.	4A/	.
1D)	.	1d	-ctus	4B/	.
.	.	.	.	4A/	.
.	.	.	.	1d\	.
=9-	=9-	=9-	=9-	=9-	=9-
1AA	-ctus	2r	.	.	.
*	*	*	*ij	*	*
.	.	4A\	San-	4c\	.
.	.	4B\	.	4B\	.
*	*ij	*	*	*lig	*
4AA/	San-	4c\	.	1A	.
4BB/	.	4d\	.	.	.
4C/	.	2e\	.	.	.
4AA/	.	.	.	.	.
=10-	=10-	=10-	=10-	=10-	=10-
1E	.	4E/	.	1G	.
.	.	4F#X/	.	.	.
.	.	4G#X/	.	.	.
.	.	4A/	.	.	.
*	*	*	*	*Xlig	*
1BB	.	1.B	.	1F#X	.
=11-	=11-	=11-	=11-	=11-	=11-
2.C/	.	.	.	2E/	-ctus
*	*	*	*	*	*ij
.	.	2.A/	.	2.c\	San-
4D/	.	.	.	.	.
1E	.	.	.	.	.
.	.	4G/	.	4B\	.
.	.	1c\	.	4A/	.
!	!	!	!	!LO:LB:g=original	!
.	.	.	.	4ryy	.
=12-	=12-	=12-	=12-	=12-	=12-
0D	.	.	.	0d	-ctus
!	!	!LO:LB:g=original	!	!	!
*	*	*	*	*	*Xij
.	.	2B\	.	.	.
.	.	1A	.	.	.
=13-	=13-	=13-	=13-	=13-	=13-
1GG,	-ctus	2B\	-ctus	2d,\	.
*	*Xij	*	*Xij	*	*
.	.	4.B\	Do-	4.d\	Do-
.	.	8B\	-mi-	8d\	-mi-
4.G\	Do-	2G/	-nus	2B\	-nus
8G\	-mi-	.	.	.	.
2E\	-nus	2.c\	De-	2.e\	De-
=14-	=14-	=14-	=14-	=14-	=14-
2.A\	De-	.	.	.	.
.	.	4B\	.	4d\	.
.	.	4A\	.	1c	.
4F\	.	4B\	.	.	.
2F\	.	4c\	.	.	.
.	.	4G/	-us	.	.
2E\	-us	2.d\	sab-	4c\	-us
.	.	.	.	2c\	Sab-
=15-	=15-	=15-	=15-	=15-	=15-
2.D/	sab-	.	.	.	.
.	.	4d\	-ba-	8B\L	.
.	.	.	.	8A\J	.
.	.	2G,/	-oth	4.B\	.
4D/	-ba-	.	.	.	.
.	.	.	.	8B\	-ba-
!LO:LB:g=original	!	!	!	!	!
*	*	*	*ij	*	*
1C	-oth	2.c\	Do-	2c\	-oth
*	*	*	*	*	*ij
.	.	.	.	4.e\	Do-
.	.	4c\	-mi-	.	.
.	.	.	.	8e\	-mi-
=16-	=16-	=16-	=16-	=16-	=16-
00r	.	2A/	-nus	2f\	-nus
.	.	1.c	De-	1.e	De-
=17-	=17-	=17-	=17-	=17-	=17-
.	.	2B\	-us	2d\	-us
.	.	2.A/	Sab-	2.c\	Sab-
.	.	4A/	-ba-	4c\	-ba-
.	.	2B\	-oth	4d,\	-oth
.	.	.	.	4.d\	Do-
=18-	=18-	=18-	=18-	=18-	=18-
*	*ij	*	*	*	*
2.G\	Do-	4.B\	Do-	.	.
.	.	.	.	8d\J	-mi-
.	.	.	.	4e\	-nus
.	.	8B\	-mi-	.	.
.	.	2c\	-nus	4e\	De-
4G\	.	.	.	4d\	-us
!	!	!LO:LB:g=original	!	!	!
1A	.	1e	De-	1c	Sab-
=19-	=19-	=19-	=19-	=19-	=19-
1F	-mi-	2d\	.	4B\	.
.	.	.	.	4A/	-ba-
.	.	2e\	-us	2B,\	-oth
*	*	*	*Xij	*	*
2E\	-nus	1e	Sab-	1c	D(o)-
4C/	De-	.	.	.	.
4D/	.	.	.	.	.
=20-	=20-	=20-	=20-	=20-	=20-
4E\	-us	4d\	.	4B\	-m(in)-
4F\	.	4c\	.	4A,/	-us
*	*	*	*	*	*Xij
1G	Sab-	4.B\	.	4B\	.
.	.	.	.	4G/	.
.	.	8B\	-ba-	.	.
.	.	2A/	-oth	1d	.
*	*	*	*ij	*	*
!LO:TX:a:t=P:#below:problem	!	!	!	!	!
2F#X\	.	2B\	Sab-	.	.
=21-	=21-	=21-	=21-	=21-	=21-
!	!	!	!	!LO:TX:a:t=P:#above:problem	!
2.E\	.	2G/	-ba-	2c#X\	.
!	!	!LO:TX:a:t=P:#above:problem	!	!	!
.	.	2F#X/	-oth	2d\	.
*	*	*	*Xij	*	*
4E\	-ba-	.	.	.	.
2D/	-oth	4D/	De-	4d\	Sab-
*	*Xij	*	*	*	*
.	.	4E/	.	8c#\L	.
.	.	.	.	8B\J	.
!	!	!LO:TX:a:t=P:#below:problem	!	!	!
1D\	De-	4F#X/	.	4A/	.
.	.	4G/	.	4B\	.
=22-	=22-	=22-	=22-	=22-	=22-
.	.	4A/	.	4c\	.
.	.	4B\	-us	8d\L	.
.	.	.	.	8e\J	.
!	!	!	!	!LO:TX:a:t=P:#below:problem	!
2C/	-us	2c\	sab-	2G#X/	.
1.E	sab-	4B\	.	1A	.
.	.	4A/	.	.	.
.	.	2.B\	.	.	.
=23-	=23-	=23-	=23-	=23-	=23-
.	.	.	.	2G/	-ba-
.	.	4B\	-ba-	.	.
2E\	-ba-	2c\	-oth	1A	-oth
2AA/	-oth	2c\	Ple-	.	.
2A\	Ple-	2c\	-ni	1r	.
=24-	=24-	=24-	=24-	=24-	=24-
2A\	-ni	2B\	-ſunt	.	.
!LO:LB:g=original	!	!	!	!	!
2G#X\	-ſunt	1c	cae-	2r	.
(2A\	cae-	.	.	2A/	Ple-
!	!	!LO:LB:g=original	!	!	!
2AA/)	.	2.B\	-li	2A/	-ni-
=25-	=25-	=25-	=25-	=25-	=25-
1E,	-li	.	.	2G#X/	-ſunt
.	.	4c\	e	.	.
.	.	1d	ter-	4A/	cae-
.	.	.	.	4D/	.
*	*ij	*	*	*	*
2D/	Ple-	.	.	2d\	.
2D/	-ni	1A\	-ra	2d\	-li
=26-	=26-	=26-	=26-	=26-	=26-
2D/	-ſunt	.	.	2r	.
2C#X/	cae-	2r	.	0r	.
1D	.	2d\	Ple-	.	.
.	.	2d\	-ni	.	.
=27-	=27-	=27-	=27-	=27-	=27-
1AA	-li	2c#X\	sunt	.	.
*	*Xij	*	*	*	*
.	.	4d\	cae-	2r	.
.	.	4c#\	.	.	.
1r	.	2B\	.	2d\	Ple-
.	.	1A\	-li	2d\	-ni
=28-	=28-	=28-	=28-	=28-	=28-
2r	.	.	.	2c#X\	-ſunt
2A\	Ple-	1B	et	2d\	cae-
2A\	-ni	.	.	2.e\	.
2G#X\	-ſunt	2.c\	ter-	.	.
.	.	.	.	4d\	.
=29-	=29-	=29-	=29-	=29-	=29-
*	*	*	*	*custos:d	*
2.A\	cae-	.	.	1c	.
.	.	4B\	.	.	.
.	.	0.A	.	.	.
4G\	.	.	.	.	.
!	!	!	!	!LO:LB:g=original	!
4F\	.	.	.	1d	-li
4E\	.	.	.	.	.
2D/	.	.	.	.	.
=30-	=30-	=30-	=30-	=30-	=30-
2D/	-li	.	.	1e	et
2C#X/	et	.	.	.	.
!LO:LB:g=original	!	!	!	!	!
4D\	ter-	.	.	2.d\	ter-
4E\	.	.	.	.	.
4F\	.	1A\	-ra	.	.
!	!	!	!	!LO:TX:a:t=P:#above:problem	!
4D\	.	.	.	8c#X\L	.
.	.	.	.	8B\J	.
=31-	=31-	=31-	=31-	=31-	=31-
1A	.	.	.	2c#y\	.
.	.	2r	.	1d	-ra
1D	-ra	2.d\	glo-	.	.
.	.	.	.	2.B\	glo-
.	.	4d\	-ri-	.	.
=32-	=32-	=32-	=32-	=32-	=32-
2.G\	glo-	2e\	-a	.	.
.	.	.	.	4B\	-ri-
.	.	4e\	tu-	2A/	-a
*	*	*custos:c	*	*	*
4G\	-ri-	4d\	.	.	.
!	!	!LO:LB:g=original	!	!	!
1A	-a	1c	.	1e	tu-
=33-	=33-	=33-	=33-	=33-	=33-
1F	tu-	4B\	.	2d\	.
.	.	4A\	.	.	.
.	.	2B\	-a	2e\	-a
*	*	*	*ij	*	*
2E\	-a	2.c\	glo-	4e\	Glo-
.	.	.	.	4d\	.
4C/	glo-	.	.	4.c\	.
4D/	.	4c\	.	.	.
.	.	.	.	8c\	-ri-
=34-	=34-	=34-	=34-	=34-	=34-
4E\	-ri-	2B\	.	2d\	-a
4C/	.	.	.	.	.
2G\	-a	2A\	-ri-	2.d\	tu-
0D	tu-	4B\	-a	.	.
.	.	4c\	.	8c\L	.
.	.	.	.	8B\J	.
.	.	2d\	tu-	1A\	.
=35-	=35-	=35-	=35-	=35-	=35-
.	.	2D/	.	.	.
.	.	2D/	-a	2.B\	-a
*	*	*	*Xij	*	*
1GG	-a	4r	.	.	.
.	.	4G/	O-	4B\	.
!	!	!	!	!LO:LB:g=original	!
.	.	2.c\	-san-	2.e\	tu-
=36-	=36-	=36-	=36-	=36-	=36-
1r	.	.	.	.	.
.	.	4B\	-na	4d\	.
.	.	4A/	in	4c\	.
.	.	4G/	ex-	4B\	.
2r	.	[2d\	-cel-	2A/	.
2D/	o-	8d\L]	.	2B\	-a
.	.	8c\	.	.	.
.	.	8B\	.	.	.
.	.	8A\J	.	.	.
=37-	=37-	=37-	=37-	=37-	=37-
2.G\	-san-	4B\	.	2r	.
.	.	8A\L	.	.	.
.	.	8B\J	.	.	.
!	!	!LO:TX:a:t=P:#above:problem	!	!	!
.	.	4c#X\	.	1r	.
4F\	-na	2d\	.	.	.
4E\	in	.	.	.	.
*	*	*custos:d	*	*	*
4D/	ex-	4c#\	.	.	.
!LO:LB:g=original	!	!LO:LB:g=original	!	!	!
2AA/	-cel-	4d\	-sis	2r	.
.	.	4D/	O-	.	.
=38-	=38-	=38-	=38-	=38-	=38-
2D/	-sis	4.d\	-san-	2D/	o-
.	.	8c\	-na	.	.
2r	.	4B\	in	4d\	-san-
.	.	4A/	ex-	4c\	-na
1r	.	2.E/	-cel-	4B\	in
.	.	.	.	4c\	ex-
.	.	.	.	2B\	-cel-
.	.	4.e\	.	.	.
=39-	=39-	=39-	=39-	=39-	=39-
*	*ij	*	*	*	*
2E\	o-	.	.	4A/	-sis
.	.	8d\L	.	.	.
*	*	*	*	*	*ij
.	.	8c\	.	4A/	o-
.	.	8B\J	.	.	.
2.A\	-san-	4c\	.	4.e\	-san-
.	.	4B\	.	.	.
.	.	.	.	8e\	-na
.	.	8A\L	.	4f\	in
.	.	8B\J	.	.	.
4G\	.	2c\	.	4c\	ex-
4F\	.	.	.	2d\	-cel-
4E\	.	4B\	.	.	.
=40-	=40-	=40-	=40-	=40-	=40-
2G\	.	2c\	-sis	2e\	-sis
*	*	*	*	*	*Xij
4C/	-na	0r	.	4r	.
*	*Xij	*	*	*	*
4C/	o-	.	.	4c\	o-
2.F\	-san-	.	.	(2f\	-san-
*	*	*	*	*custos:f	*
!	!	!	!	!LO:TX:t=P:problem=wykreślone dwie nuty	!
.	.	.	.	4f\)	-na
!	!	!	!	!LO:LB:g=original	!
4E\	-na	.	.	2e\	in
=41-	=41-	=41-	=41-	=41-	=41-
4D/	in	.	.	.	.
4C/	ex-	.	.	4d\	ex-
8D\L	-cel-	2r	.	(4d\	-cel-
8E\	.	.	.	.	.
!	!	!	!	!LO:TX:a:t=P:#above:problem	!
8F\	.	.	.	4c#X\	.
8G\J	.	.	.	.	.
*	*	*	*ij	*	*
2A\	.	2A/	O-	2d\)	-sis
*	*	*	*	*	*ij
2D/	-sis	4.d\	-san-	2D/	o-
.	.	8c\	-na	.	.
=42-	=42-	=42-	=42-	=42-	=42-
1r	.	4B\	in	4d\	-san-
.	.	4A\	ex-	4c\	.
.	.	8G\L	-cel-	4.B\	.
.	.	8A\	.	.	.
.	.	8B\	.	.	.
*	*	*custos:d	*	*	*
.	.	8c\J	.	8B\	.
!	!	!LO:LB:g=original	!	!	!
2r	.	[2d\	.	2A/	.
2D/	O-	8d\L]	.	2B\	-na
.	.	8c\	.	.	.
.	.	8B\	.	.	.
.	.	8A\J	.	.	.
=43-	=43-	=43-	=43-	=43-	=43-
2.G\	-san-	2G/	.	2B\	in
.	.	2G/	-sis	4c\	.
4F\	-na	.	.	4d\	.
!LO:LB:g=original	!	!	!	!	!
4E\	in	4.G/	in	8.e\	ex-
.	.	.	.	16e\	.
4D\	ex-	.	.	2d\	-cel-
.	.	8G/	ex-	.	.
4C/	-cel-	1G/	-cel-	.	.
4BB/	.	.	.	8c\L	.
.	.	.	.	8B\J	.
=44-	=44-	=44-	=44-	=44-	=44-
1C	.	.	.	2c\	.
!	!	!LO:N:vis=1.	!	!	!
.	.	0.G;	-sis	0B;<	-sis
*	*	*	*Xij	*	*Xij
!LO:N:vis=1	!	!	!	!	!
0.GG;	-sis	.	.	.	.
=45-	=45-	=45-	=45-	=45-	=45-
.	.	.	.	2ryy	.
.	.	.	.	1ryy	.
.	.	2ryy	.	.	.
=-	=-	=-	=-	=-	=-
*-	*-	*-	*-	*-	*-
!!!system-decoration: s1,s2,s3
!!!RDF**kern: > = above
!!!RDF**kern: < = below
!!!EED: Leszek Kubiak
!!!EEV: 2021-08-24
!!!ENC: Andrzej Gręziak
!!!END: 2021-06-25
!!!YEC: Copyright 2022 Narodowy Instytut Fryderyka Chopina (https://polishscores.org)
!!!YEM: Licence CC BY 4.0 (https://creativecommons.org/licenses/by/4.0)
